X:1
T:Title
%%score { 1 | 2 }
L:1/8
Q:1/4=108
M:4/4
K:Eb
V:1 treble nm="Grand Piano"
V:2 bass 
V:1
 G2 c2 B2 G2 | [DG]2 [DF]2 E4 | c2 d2 e2 B2 | c2 d2 [DB]4 | G2 c2 B2 G2 | c2 d2 [Ee]4 | %6
w: C.~A.~Marks * * *||||||
 [Gd]2 [CGc]2 [DGB]2 [B,DG]2 | [DGB]2 [C_G=A]2 [B,=G]4 | [Dc]2 [DB]2 [Ec]2 [EB]2 | %9
w: |||
 [Fe]2 [Ad]2 [Gf]2 [Ge]2 | d2 c2 B2 [EG]2 |[M:8/4] [EF]2 [DA]2 [EG]4 z8 |[M:4/4] [CEA]4 [EG]4 |] %13
w: ||||
V:2
 [E,B,E]2 [E,A,E]2 [E,G,E]2 [E,B,E]2 | [B,,B,]2 [B,,A,]2 [E,G,]4 | %2
 [A,E]2 [A,B,E]2 [G,B,E]2 [G,B,E]2 | [F,=A,E]2 [F,A,E]2 [B,,B,]4 | %4
 [E,B,E]2 [E,A,E]2 [E,G,E]2 [E,B,E]2 | [A,E]2 [G,=B,F]2[K:bass] [C,C]4 | [D,B,]2 E,2 D,2 D,2 | %7
 D,2 D,2 G,4 | [B,,A,]2 [B,,A,]2 [B,,G,]2 [B,,G,]2 | [B,,A,]2 [B,,B,]2 [E,B,]2 [E,E]2 | %10
 [=A,E_G]2 [A,EG]2 [B,E=G]2[K:bass] [B,,B,]2 |[M:8/4] [B,,B,]2 [B,,B,]2 [E,B,]4 z8 | %12
[M:4/4] [A,,A,]4 [E,B,]4 |] %13

